packages/ui-icons/svg/Solid/circle-arrow-down.svg

<svg viewBox="0 0 1920 1920" version="1.1" xmlns="http://www.w3.org/2000/svg">
    <path d="M1359.49231,1119.79692 L1279.59385,1039.89846 L1016.48821,1303.0041 L1016.56811,480.609226 L903.431889,480.609226 L903.511787,1303.0041 L640.406151,1039.89846 L560.507688,1119.79692 L960,1519.28924 L1359.49231,1119.79692 Z M280.86307,1639.13693 C-93.6210233,1264.65284 -93.6210233,655.347163 280.86307,280.86307 C655.347163,-93.6210233 1264.65284,-93.6210233 1639.13693,280.86307 C2013.62102,655.347163 2013.62102,1264.65284 1639.13693,1639.13693 C1264.65284,2013.62102 655.347163,2013.62102 280.86307,1639.13693 Z" stroke="none" stroke-width="1" fill-rule="evenodd"/>
</svg>

<svg viewBox="0 0 1920 1920" version="1.1" xmlns="http://www.w3.org/2000/svg">
    <path d="M1359.492 1119.797l-79.898-79.899-263.106 263.106.08-822.395H903.432l.08 822.395-263.106-263.106-79.898 79.899L960 1519.289l399.492-399.492zm-1078.629 519.34c-374.484-374.484-374.484-983.79 0-1358.274 374.484-374.484 983.79-374.484 1358.274 0 374.484 374.484 374.484 983.79 0 1358.274-374.484 374.484-983.79 374.484-1358.274 0z" stroke="none" stroke-width="1" fill-rule="evenodd"/>
</svg>
